web/ui/src/assets/svgs/sort/move-active.svg

<svg height="24" viewBox="0 0 24 24" width="24" xmlns="http://www.w3.org/2000/svg"><g fill="none" fill-rule="evenodd"><path d="m0 0h24v24h-24z" fill="#000" fill-rule="nonzero" opacity="0"/><path d="m16.25 3.4375v-2.1875c0-.68945312-.5605469-1.25-1.25-1.25h-13.75c-.68945312 0-1.25.56054688-1.25 1.25v13.75c0 .6894531.56054688 1.25 1.25 1.25h2.1875c.171875 0 .3125.140625.3125.3125v2.1875c0 .6894531.56054688 1.25 1.25 1.25h2.421875c.04296875 0 .078125-.0351562.078125-.078125v-1.09375c0-.0429688-.03515625-.078125-.078125-.078125h-2.421875v-2.1875c0-.171875.140625-.3125.3125-.3125h9.6875c.6894531 0 1.25-.5605469 1.25-1.25v-9.6875c0-.171875.140625-.3125.3125-.3125h2.1875v2.421875c0 .04296875.0351562.078125.078125.078125h1.09375c.0429688 0 .078125-.03515625.078125-.078125v-2.421875c0-.68945312-.5605469-1.25-1.25-1.25h-2.1875c-.171875 0-.3125-.140625-.3125-.3125zm-1.5625 11.5625h-13.125c-.171875 0-.3125-.140625-.3125-.3125v-13.125c0-.171875.140625-.3125.3125-.3125h13.125c.171875 0 .3125.140625.3125.3125v13.125c0 .171875-.140625.3125-.3125.3125zm4.0625 5h-2.421875c-.0429688 0-.078125-.0351562-.078125-.078125v-1.09375c0-.0429688.0351562-.078125.078125-.078125h2.109375c.171875 0 .3125-.140625.3125-.3125v-2.109375c0-.0429688.0351562-.078125.078125-.078125h1.09375c.0429688 0 .078125.0351562.078125.078125v2.421875c0 .6894531-.5605469 1.25-1.25 1.25zm-4.453125 0h-4.84375c-.04296875 0-.078125-.0351562-.078125-.078125v-1.09375c0-.0429688.03515625-.078125.078125-.078125h4.84375c.0429688 0 .078125.0351562.078125.078125v1.09375c0 .0429688-.0351562.078125-.078125.078125zm5.625-5.625h-1.09375c-.0429688 0-.078125-.0351562-.078125-.078125v-4.84375c0-.04296875.0351562-.078125.078125-.078125h1.09375c.0429688 0 .078125.03515625.078125.078125v4.84375c0 .0429688-.0351562.078125-.078125.078125z" fill="#096dd9" transform="translate(2 2)"/></g></svg>

<?xml version="1.0" encoding="UTF-8"?>
<svg width="24px" height="24px" viewBox="0 0 24 24" version="1.1" xmlns="http://www.w3.org/2000/svg" xmlns:xlink="http://www.w3.org/1999/xlink">
    <title>粘贴,移动,重叠</title>
    <g id="页面-1" stroke="none" stroke-width="1" fill="none" fill-rule="evenodd">
        <g id="建木自动化-分组管理移动样式" transform="translate(-1716.000000, -370.000000)">
            <g id="粘贴,移动,重叠" transform="translate(1716.000000, 370.000000)">
                <rect id="矩形" fill="#000000" fill-rule="nonzero" opacity="0" x="0" y="0" width="24" height="24"></rect>
                <g id="编组-3" transform="translate(2.000000, 2.000000)" fill="#096DD9">
                    <path d="M16.25,3.4375 L16.25,1.25 C16.25,0.560546875 15.6894531,0 15,0 L1.25,0 C0.560546875,0 0,0.560546875 0,1.25 L0,15 C0,15.6894531 0.560546875,16.25 1.25,16.25 L3.4375,16.25 C3.609375,16.25 3.75,16.390625 3.75,16.5625 L3.75,18.75 C3.75,19.4394531 4.31054688,20 5,20 L7.421875,20 C7.46484375,20 7.5,19.9648438 7.5,19.921875 L7.5,18.828125 C7.5,18.7851562 7.46484375,18.75 7.421875,18.75 L5,18.75 L5,16.5625 C5,16.390625 5.140625,16.25 5.3125,16.25 L15,16.25 C15.6894531,16.25 16.25,15.6894531 16.25,15 L16.25,5.3125 C16.25,5.140625 16.390625,5 16.5625,5 L18.75,5 L18.75,7.421875 C18.75,7.46484375 18.7851562,7.5 18.828125,7.5 L19.921875,7.5 C19.9648438,7.5 20,7.46484375 20,7.421875 L20,5 C20,4.31054688 19.4394531,3.75 18.75,3.75 L16.5625,3.75 C16.390625,3.75 16.25,3.609375 16.25,3.4375 Z M14.6875,15 L1.5625,15 C1.390625,15 1.25,14.859375 1.25,14.6875 L1.25,1.5625 C1.25,1.390625 1.390625,1.25 1.5625,1.25 L14.6875,1.25 C14.859375,1.25 15,1.390625 15,1.5625 L15,14.6875 C15,14.859375 14.859375,15 14.6875,15 Z M18.75,20 L16.328125,20 C16.2851562,20 16.25,19.9648438 16.25,19.921875 L16.25,18.828125 C16.25,18.7851562 16.2851562,18.75 16.328125,18.75 L18.4375,18.75 C18.609375,18.75 18.75,18.609375 18.75,18.4375 L18.75,16.328125 C18.75,16.2851562 18.7851562,16.25 18.828125,16.25 L19.921875,16.25 C19.9648438,16.25 20,16.2851562 20,16.328125 L20,18.75 C20,19.4394531 19.4394531,20 18.75,20 Z M14.296875,20 L9.453125,20 C9.41015625,20 9.375,19.9648438 9.375,19.921875 L9.375,18.828125 C9.375,18.7851562 9.41015625,18.75 9.453125,18.75 L14.296875,18.75 C14.3398438,18.75 14.375,18.7851562 14.375,18.828125 L14.375,19.921875 C14.375,19.9648438 14.3398438,20 14.296875,20 Z M19.921875,14.375 L18.828125,14.375 C18.7851562,14.375 18.75,14.3398438 18.75,14.296875 L18.75,9.453125 C18.75,9.41015625 18.7851562,9.375 18.828125,9.375 L19.921875,9.375 C19.9648438,9.375 20,9.41015625 20,9.453125 L20,14.296875 C20,14.3398438 19.9648438,14.375 19.921875,14.375 Z" id="形状"></path>
                </g>
            </g>
        </g>
    </g>
</svg>
